resources/payment_providers/paybox/icon.svg

<?xml version="1.0" encoding="UTF-8"?>
<svg width="142px" height="50px" viewBox="0 0 142 50" version="1.1" xmlns="http://www.w3.org/2000/svg" xmlns:xlink="http://www.w3.org/1999/xlink">
    <!-- Generator: Sketch 43.1 (39012) - http://www.bohemiancoding.com/sketch -->
    <title>logo@3x</title>
    <desc>Created with Sketch.</desc>
    <defs>
        <polygon id="path-1" points="11.8877778 49.82285 11.8877778 0.47735 0.614611111 0.47735 0.614611111 49.82285 11.8877778 49.82285"></polygon>
    </defs>
    <g id="Symbols" stroke="none" stroke-width="1" fill="none" fill-rule="evenodd">
        <g id="logo">
            <g id="Page-1">
                <path d="M62,23 L62,1 L73.064069,1 C78.2113045,1 81,4.22499831 81,8.0786106 C81,11.9217957 78.1703373,15.1855237 73.064069,15.1855237 L67.0375019,15.1855237 L67.0375019,23 L62,23 Z M75.8688588,8.0786106 C75.8688588,6.23745684 74.3779455,5.11876227 72.3881103,5.11876227 L67.0375019,5.11876227 L67.0375019,11.0518654 L72.3881103,11.0518654 C74.3779455,11.0518654 75.8688588,9.90933713 75.8688588,8.0786106 L75.8688588,8.0786106 Z" id="Fill-1" fill="#FF7226"></path>
                <path d="M99.3775542,23 L97.9753171,19.2710325 L88.0651753,19.2710325 L86.6074486,23 L81,23 L89.9383241,1 L96.1021683,1 L105,23 L99.3775542,23 Z M93.0202462,5.6778565 L89.410423,15.1531265 L96.6300694,15.1531265 L93.0202462,5.6778565 Z" id="Fill-3" fill="#FF7226"></path>
                <polygon id="Fill-5" fill="#FF7226" points="112.65248 23 112.65248 13.9997969 104 1 109.447691 1 115.050428 9.82889837 120.552309 1 126 1 117.431817 13.9997969 117.431817 23"></polygon>
                <path d="M62,50 L62,28 L73.3723181,28 C77.4708824,28 79.5673496,30.6710455 79.5673496,33.6027898 C79.5673496,36.382584 77.8904662,38.2268418 75.8564285,38.6573673 C78.1605098,39.0074485 80,41.2792524 80,44.0605363 C80,47.3617281 77.8309405,50 73.7164059,50 L62,50 Z M74.8836909,34.4340466 C74.8836909,33.051598 73.9109534,32.0371073 72.3545733,32.0371073 L66.5936441,32.0371073 L66.5936441,36.8116197 L72.3545733,36.8116197 C73.9109534,36.8116197 74.8836909,35.8164951 74.8836909,34.4340466 L74.8836909,34.4340466 Z M75.3018229,43.3976165 C75.3018229,42.0196371 74.3290853,40.8368093 72.518632,40.8368093 L66.5936441,40.8368093 L66.5936441,45.946506 L72.518632,45.946506 C74.2695596,45.946506 75.3018229,44.9811755 75.3018229,43.3976165 L75.3018229,43.3976165 Z" id="Fill-7" fill="#3681C7"></path>
                <path d="M82,38.5 C82,31.79179 86.8364,27 93.4769837,27 C100.133901,27 105,31.79179 105,38.5 C105,45.1948913 100.133901,50 93.4769837,50 C86.8364,50 82,45.1948913 82,38.5 M100.179934,38.5 C100.179934,34.3371509 97.5323133,31.1939261 93.4769837,31.1939261 C89.4216541,31.1939261 86.8052166,34.3371509 86.8052166,38.5 C86.8052166,42.6347317 89.4216541,45.8060739 93.4769837,45.8060739 C97.5323133,45.8060739 100.179934,42.6347317 100.179934,38.5" id="Fill-9" fill="#3681C7"></path>
                <polygon id="Fill-11" fill="#3681C7" points="121.449884 50 115.994016 41.9421723 110.505236 50 105 50 112.892833 38.7184453 105.47722 28 111.012376 28 115.994016 35.5230228 120.926289 28 126.50782 28 119.107167 38.684182 127 50"></polygon>
                <polygon id="Fill-13" fill="#3681C7" points="0 24.5 7.12555668 12.2507368 11.111415 5.39598244 14.313462 10.7787033 11.8729588 14.9708306 6.33135401 24.5 11.8729588 34.0306429 17.4145636 43.5583388 17.4873037 43.5583388 28.7887335 24.4410597 17.4873037 5.44166115 17.4145636 5.44166115 14.2140011 0.0633607987 14.2511134 0 20.5245722 0 28.5007422 0 42.7518556 0 49.8774123 12.2507368 57 24.5 49.8774123 36.7507368 42.7518556 49 28.5007422 49 26.7742792 49 30.0000781 43.5583388 39.5854364 43.5583388 45.1270412 34.0306429 50.6701305 24.5 45.1270412 14.9708306 39.5854364 5.44166115 28.5007422 5.44166115 23.7637315 5.44166115 35.0725838 24.4425332 23.7459176 43.5583388 23.7592781 43.5583388 20.5201188 49 14.2511134 49 7.12555668 36.7507368"></polygon>
                <g id="Group-17" transform="translate(130.000000, 0.000000)">
                    <mask id="mask-2" fill="white">
                        <use xlink:href="#path-1"></use>
                    </mask>
                    <g id="Clip-16"></g>
                    <path d="M0.933833333,7.81985 L7.86283333,4.93085 C8.03327778,4.86635 8.14305556,4.83635 8.22105556,4.83635 C8.29905556,4.83635 8.40738889,4.88435 8.5475,4.94885 C9.24661111,5.27135 9.77383333,5.75435 10.0699444,6.14285 C10.4122778,6.56135 10.6289444,7.03085 10.7372778,7.38485 L11.8885,7.03085 C11.8249444,6.67385 11.5923889,5.97935 11.0030556,5.28785 C10.1941667,4.31735 8.87394444,3.62435 6.29416667,2.60735 L0.933833333,0.47735 L0.933833333,1.97735 L5.34661111,3.52985 C5.89116667,3.72335 6.46461111,3.88235 6.91672222,4.02935 L6.91672222,4.05935 C6.46461111,4.18835 5.87383333,4.38485 5.37694444,4.56035 L0.933833333,6.27185 L0.933833333,7.81985 Z M3.96427778,14.06435 C3.01527778,13.95335 1.74127778,13.32335 1.74127778,11.88785 C1.74127778,10.28885 3.09327778,9.90335 3.96427778,9.91685 L3.96427778,14.06435 Z M4.94216667,8.59685 C4.80205556,8.58035 4.58394444,8.54585 4.30516667,8.54585 C2.92283333,8.54585 0.763388889,9.22535 0.763388889,11.77535 C0.763388889,14.04785 2.54872222,15.43535 4.8165,15.43535 C7.08716667,15.43535 8.60816667,13.99985 8.60816667,11.59685 C8.60816667,10.35185 8.36116667,9.49685 8.14305556,8.99735 L7.16372222,9.23885 C7.38183333,9.77435 7.55227778,10.38635 7.55227778,11.40335 C7.55227778,12.82385 6.7925,14.04785 4.94216667,14.08235 L4.94216667,8.59685 Z M8.45361111,23.82785 L8.45361111,22.40885 L3.9325,22.40885 C3.6985,22.40885 3.46594444,22.37435 3.2955,22.30985 C2.53283333,22.06835 1.89727778,21.34385 1.89727778,20.40785 C1.89727778,19.06685 2.90694444,18.60035 4.11883333,18.60035 L8.45361111,18.60035 L8.45361111,17.17835 L3.96427778,17.17835 C1.3845,17.17835 0.763388889,18.85535 0.763388889,19.93685 C0.763388889,21.22835 1.46105556,22.13435 2.17605556,22.52135 L2.17605556,22.55135 L0.933833333,22.63235 L0.933833333,23.89235 C1.55494444,23.84435 2.19194444,23.82785 2.96905556,23.82785 L8.45361111,23.82785 Z M1.78894444,29.41235 C1.78894444,27.73085 3.40383333,27.06935 4.67783333,27.06935 C6.37216667,27.06935 7.5985,28.08785 7.5985,29.44235 C7.5985,30.83135 6.35627778,31.81385 4.70816667,31.81385 C3.27961111,31.81385 1.78894444,31.08935 1.78894444,29.41235 L1.78894444,29.41235 Z M0.763388889,29.37785 C0.763388889,31.53935 2.23816667,33.24935 4.75583333,33.24935 C7.13338889,33.24935 8.62405556,31.62035 8.62405556,29.50535 C8.62405556,27.61835 7.41216667,25.61735 4.63161111,25.61735 C2.33205556,25.61735 0.763388889,27.13535 0.763388889,29.37785 L0.763388889,29.37785 Z M8.45361111,46.14485 L8.45361111,44.75435 L3.91661111,44.75435 C3.68261111,44.75435 3.45005556,44.72435 3.24927778,44.64335 C2.56461111,44.41535 1.88138889,43.77185 1.88138889,42.88535 C1.88138889,41.80235 2.75238889,41.25335 3.94838889,41.25335 L8.45361111,41.25335 L8.45361111,39.86585 L3.80683333,39.86585 C3.55838889,39.86585 3.31138889,39.81785 3.12505556,39.75335 C2.45627778,39.51185 1.88138889,38.88185 1.88138889,38.07635 C1.88138889,36.92885 2.75238889,36.37985 4.19683333,36.37985 L8.45361111,36.37985 L8.45361111,34.99235 L4.02638889,34.99235 C1.41483333,34.99235 0.763388889,36.52835 0.763388889,37.55735 C0.763388889,38.29985 0.948277778,38.81735 1.29061111,39.28685 C1.52316667,39.60635 1.85105556,39.91385 2.26994444,40.15835 L2.26994444,40.18835 C1.3845,40.52885 0.763388889,41.33585 0.763388889,42.40085 C0.763388889,43.68935 1.43072222,44.41535 2.14572222,44.85035 L2.14572222,44.90135 L0.933833333,44.96735 L0.933833333,46.20935 C1.55494444,46.16135 2.19194444,46.14485 2.96905556,46.14485 L8.45361111,46.14485 Z M2.57327778,48.86885 C2.57327778,48.27485 2.15438889,47.90285 1.59394444,47.90285 C1.0205,47.90285 0.614611111,48.28835 0.614611111,48.85235 C0.614611111,49.41785 1.0205,49.82285 1.59394444,49.82285 C2.15438889,49.82285 2.57327778,49.43435 2.57327778,48.86885 L2.57327778,48.86885 Z" id="Fill-15" fill="#FF7226" mask="url(#mask-2)"></path>
                </g>
            </g>
        </g>
    </g>
</svg>

<?xml version="1.0" encoding="UTF-8"?>
<svg version="1.1" viewBox="0 0 142 50" xmlns="http://www.w3.org/2000/svg" xmlns:xlink="http://www.w3.org/1999/xlink">
<title>logo@3x</title>
<desc>Created with Sketch.</desc>
<defs>
<polygon id="a" points="11.888 49.823 11.888 0.47735 0.61461 0.47735 0.61461 49.823"/>
</defs>
<g fill="none" fill-rule="evenodd">
<path d="m62 23v-22h11.064c5.1472 0 7.9359 3.225 7.9359 7.0786 0 3.8432-2.8297 7.1069-7.9359 7.1069h-6.0266v7.8145h-5.0375zm13.869-14.921c0-1.8412-1.4909-2.9598-3.4807-2.9598h-5.3506v5.9331h5.3506c1.9898 0 3.4807-1.1425 3.4807-2.9733z" fill="#FF7226"/>
<path d="m99.378 23-1.4022-3.729h-9.9101l-1.4577 3.729h-5.6074l8.9383-22h6.1638l8.8978 22h-5.6224zm-6.3573-17.322-3.6098 9.4753h7.2196l-3.6098-9.4753z" fill="#FF7226"/>
<polygon points="112.65 23 112.65 14 104 1 109.45 1 115.05 9.8289 120.55 1 126 1 117.43 14 117.43 23" fill="#FF7226"/>
<path d="m62 50v-22h11.372c4.0986 0 6.195 2.671 6.195 5.6028 0 2.7798-1.6769 4.6241-3.7109 5.0546 2.3041 0.35008 4.1436 2.6219 4.1436 5.4032 0 3.3012-2.1691 5.9395-6.2836 5.9395h-11.716zm12.884-15.566c0-1.3824-0.97274-2.3969-2.5291-2.3969h-5.7609v4.7745h5.7609c1.5564 0 2.5291-0.99512 2.5291-2.3776zm0.41813 8.9636c0-1.378-0.97274-2.5608-2.7832-2.5608h-5.925v5.1097h5.925c1.7509 0 2.7832-0.96533 2.7832-2.5489z" fill="#3681C7"/>
<path d="m82 38.5c0-6.7082 4.8364-11.5 11.477-11.5 6.6569 0 11.523 4.7918 11.523 11.5 0 6.6949-4.8661 11.5-11.523 11.5-6.6406 0-11.477-4.8051-11.477-11.5m18.18 0c0-4.1628-2.6476-7.3061-6.703-7.3061s-6.6718 3.1432-6.6718 7.3061c0 4.1347 2.6164 7.3061 6.6718 7.3061s6.703-3.1713 6.703-7.3061" fill="#3681C7"/>
<polygon points="121.45 50 115.99 41.942 110.51 50 105 50 112.89 38.718 105.48 28 111.01 28 115.99 35.523 120.93 28 126.51 28 119.11 38.684 127 50" fill="#3681C7"/>
<polygon points="0 24.5 7.1256 12.251 11.111 5.396 14.313 10.779 11.873 14.971 6.3314 24.5 11.873 34.031 17.415 43.558 17.487 43.558 28.789 24.441 17.487 5.4417 17.415 5.4417 14.214 0.063361 14.251 0 20.525 0 28.501 0 42.752 0 49.877 12.251 57 24.5 49.877 36.751 42.752 49 28.501 49 26.774 49 30 43.558 39.585 43.558 45.127 34.031 50.67 24.5 45.127 14.971 39.585 5.4417 28.501 5.4417 23.764 5.4417 35.073 24.443 23.746 43.558 23.759 43.558 20.52 49 14.251 49 7.1256 36.751" fill="#3681C7"/>
<g transform="translate(130)">
<mask id="b" fill="white">
<use xlink:href="#a"/>
</mask>
<path d="m0.93383 7.8198 6.929-2.889c0.17044-0.0645 0.28022-0.0945 0.35822-0.0945s0.18633 0.048 0.32644 0.1125c0.69911 0.3225 1.2263 0.8055 1.5224 1.194 0.34233 0.4185 0.559 0.888 0.66733 1.242l1.1512-0.354c-0.063556-0.357-0.29611-1.0515-0.88544-1.743-0.80889-0.9705-2.1291-1.6635-4.7089-2.6805l-5.3603-2.13v1.5l4.4128 1.5525c0.54456 0.1935 1.118 0.3525 1.5701 0.4995v0.03c-0.45211 0.129-1.0429 0.3255-1.5398 0.501l-4.4431 1.7115v1.548zm3.0304 6.2445c-0.949-0.111-2.223-0.741-2.223-2.1765 0-1.599 1.352-1.9845 2.223-1.971v4.1475zm0.97789-5.4675c-0.14011-0.0165-0.35822-0.051-0.637-0.051-1.3823 0-3.5418 0.6795-3.5418 3.2295 0 2.2725 1.7853 3.66 4.0531 3.66 2.2707 0 3.7917-1.4355 3.7917-3.8385 0-1.245-0.247-2.1-0.46511-2.5995l-0.97933 0.2415c0.21811 0.5355 0.38856 1.1475 0.38856 2.1645 0 1.4205-0.75978 2.6445-2.6101 2.679v-5.4855zm3.5114 15.231v-1.419h-4.5211c-0.234 0-0.46656-0.0345-0.637-0.099-0.76267-0.2415-1.3982-0.966-1.3982-1.902 0-1.341 1.0097-1.8075 2.2216-1.8075h4.3348v-1.422h-4.4893c-2.5798 0-3.2009 1.677-3.2009 2.7585 0 1.2915 0.69767 2.1975 1.4127 2.5845v0.03l-1.2422 0.081v1.26c0.62111-0.048 1.2581-0.0645 2.0352-0.0645h5.4846zm-6.6647 5.5845c0-1.6815 1.6149-2.343 2.8889-2.343 1.6943 0 2.9207 1.0185 2.9207 2.373 0 1.389-1.2422 2.3715-2.8903 2.3715-1.4286 0-2.9192-0.7245-2.9192-2.4015zm-1.0256-0.0345c0 2.1615 1.4748 3.8715 3.9924 3.8715 2.3776 0 3.8682-1.629 3.8682-3.744 0-1.887-1.2119-3.888-3.9924-3.888-2.2996 0-3.8682 1.518-3.8682 3.7605zm7.6902 16.767v-1.3905h-4.537c-0.234 0-0.46656-0.03-0.66733-0.111-0.68467-0.228-1.3679-0.8715-1.3679-1.758 0-1.083 0.871-1.632 2.067-1.632h4.5052v-1.3875h-4.6468c-0.24844 0-0.49544-0.048-0.68178-0.1125-0.66878-0.2415-1.2437-0.8715-1.2437-1.677 0-1.1475 0.871-1.6965 2.3154-1.6965h4.2568v-1.3875h-4.4272c-2.6116 0-3.263 1.536-3.263 2.565 0 0.7425 0.18489 1.26 0.52722 1.7295 0.23256 0.3195 0.56044 0.627 0.97933 0.8715v0.03c-0.88544 0.3405-1.5066 1.1475-1.5066 2.2125 0 1.2885 0.66733 2.0145 1.3823 2.4495v0.051l-1.2119 0.066v1.242c0.62111-0.048 1.2581-0.0645 2.0352-0.0645h5.4846zm-5.8803 2.724c0-0.594-0.41889-0.966-0.97933-0.966-0.57344 0-0.97933 0.3855-0.97933 0.9495 0 0.5655 0.40589 0.9705 0.97933 0.9705 0.56044 0 0.97933-0.3885 0.97933-0.954z" fill="#FF7226" mask="url(#b)"/>
</g>
</g>
</svg>
